svg/surgical_sterilization_outline.svg

<?xml version="1.0" encoding="UTF-8" standalone="no"?>
<!-- Created with Inkscape (http://www.inkscape.org/) -->
<svg id="svg8" xmlns:rdf="http://www.w3.org/1999/02/22-rdf-syntax-ns#" xmlns="http://www.w3.org/2000/svg" xmlns:osb="http://www.openswatchbook.org/uri/2009/osb" height="48" width="48" version="1.1" xmlns:cc="http://creativecommons.org/ns#" viewBox="0 0 12.7 12.7" xmlns:dc="http://purl.org/dc/elements/1.1/">
 <title id="title4753">UIO-icon</title>
 <metadata id="metadata5">
  <rdf:RDF>
   <cc:Work rdf:about="">
    <dc:format>image/svg+xml</dc:format>
    <dc:type rdf:resource="http://purl.org/dc/dcmitype/StillImage"/>
    <dc:title>UIO-icon</dc:title>
    <dc:creator>
     <cc:Agent>
      <dc:title>Joaquín Urbano</dc:title>
     </cc:Agent>
    </dc:creator>
    <dc:rights>
     <cc:Agent>
      <dc:title>GPL</dc:title>
     </cc:Agent>
    </dc:rights>
   </cc:Work>
  </rdf:RDF>
 </metadata>
 <g id="layer1" transform="translate(0,-284.3)" fill="#333">
  <path id="path902" d="m12.184 4.6641c-1.257 0.68357-1.7306 1.4608-2.1895 2.1875l0.0995 4.8494c0.4636 1.1507 0.8827 2.3502-0.050781 5.0508l-0.009766 1.0684 2.6113-2.0488-0.009766-0.6582c-0.2604-0.008202-0.60257-0.02434-0.60156-0.40039l0.033203-1.873c0.12648-1.0604 0.3945-2.0706 0.35156-3.2598-0.078-1.6391-0.248-3.5802-0.234-4.9161zm16.346 0c-1.2536 0.00061833-2.2695 1.1652-2.2695 2.6016 0.00002987 1.4364 1.016 2.6009 2.2695 2.6016 0.043025-0.0012076 0.086011-0.0038062 0.12891-0.0078125h1.622l0.34375 0.36914-0.003906 0.80859 0.93555 18.27 0.70508-0.52734-0.793-17.743h1.5078l-0.44922 17.836-0.95508 0.70508c0.08234 4.4521 0.23419 9.3402 0.375 13.758h0.443l-0.127-11.197 0.886-0.42 0.676-20.682 0.01-0.808 0.334-0.3618h1.7598c1.2543 0.00061758 2.2715-1.1643 2.2715-2.6016-0.00003009-1.4373-1.0172-2.6022-2.2715-2.6016-1.2536 0.00061833-2.2695 1.1652-2.2695 2.6016 0.00059628 0.010432 0.001247 0.020818 0.001953 0.03125h-0.001953v2.002l-0.56055 0.62891h-1.7383l-0.56055-0.62891v-2.0039c0.00004797-0.0097512 0.00004797-0.019546 0-0.029297-0.0000297-1.4373-1.0172-2.6022-2.2715-2.6016zm3.8613 38.672h0.48242l0.26953-11.408-0.62695 0.28125zm-3.862-38.295c1.0725-0.00073058 1.9421 0.9957 1.9414 2.2246-0.00059472 0.0097512-0.001246 0.019546-0.001953 0.029297-0.00076534 0.073092-0.004676 0.1461-0.011719 0.21875v0.0039063c-0.001265 0.0078236-0.002568 0.015652-0.003906 0.023438-0.006273 0.060922-0.014744 0.12152-0.025391 0.18164v0.0039063c-0.00064466 0.0032519-0.001296 0.0065152-0.001953 0.0097656-0.003151 0.013039-0.006407 0.02608-0.009766 0.039062-0.009614 0.049247-0.020688 0.098103-0.033203 0.14648-0.001292 0.0038929-0.002595 0.0078258-0.003906 0.011719-0.008599 0.028876-0.017716 0.057508-0.027344 0.085938-0.014271 0.046809-0.029905 0.093061-0.046875 0.13867-0.024705 0.064607-0.05208 0.12783-0.082031 0.18945-0.001295 0.0032542-0.002597 0.0065152-0.003906 0.0097656-0.010768 0.021052-0.021837 0.041879-0.033203 0.0625-0.001946 0.0032564-0.003899 0.0065152-0.005859 0.0097656-0.018664 0.035792-0.038204 0.07095-0.058594 0.10547-0.001946 0.0032564-0.003899 0.0065152-0.005859 0.0097656-0.013367 0.020447-0.027041 0.040636-0.041016 0.060547-0.022544 0.035301-0.045992 0.06981-0.070312 0.10352-0.002593 0.0039307-0.005197 0.0078258-0.007813 0.011719-0.015335 0.0192-0.030962 0.038076-0.046875 0.056641-0.022174 0.028006-0.044968 0.055359-0.068359 0.082031-0.006467 0.0072189-0.012978 0.014379-0.019531 0.021484-0.040092 0.043691-0.081797 0.085394-0.125 0.125-0.007121 0.0065764-0.014283 0.013068-0.021484 0.019531-0.003248 0.0026192-0.006504 0.0052046-0.009766 0.0078125-0.013546 0.011263-0.027219 0.022394-0.041016 0.033203-0.034978 0.029367-0.070806 0.057373-0.10742 0.083984l-0.001953 0.0019531c-0.002602 0.0013043-0.005206 0.0026288-0.007813 0.0039063-0.003898 0.0026234-0.007805 0.0052046-0.011719 0.0078125-0.047656 0.032995-0.096529 0.06362-0.14648 0.091797l-0.003906 0.0039063c-0.003252 0.0013077-0.006507 0.0026318-0.009766 0.0039063-0.005198 0.002634-0.010407 0.0052424-0.015625 0.0078125-0.049808 0.027855-0.10064 0.053287-0.15234 0.076172l-0.003906 0.0019531c-0.050695 0.021997-0.10217 0.041541-0.1543 0.058594-0.004553 0.0013164-0.009111 0.0026409-0.013672 0.0039063-0.01429 0.0034356-0.028614 0.0067042-0.042969 0.0097656-0.029796 0.0079748-0.059752 0.015135-0.089844 0.021484-0.014284 0.0040819-0.028608 0.0080148-0.042969 0.011719h-0.005859c-0.042118 0.008126-0.084459 0.014618-0.12695 0.019531-0.005206 0.0006754-0.010414 0.0013261-0.015625 0.0019531-0.019504 0.0022919-0.039038 0.0042342-0.058594 0.0058594-0.003905 0.00066482-0.007811 0.0013155-0.011719 0.0019531-0.035769 0.002434-0.07159 0.0037588-0.10742 0.0039063h-0.003906c-1.071-0.0005-1.939-0.9954-1.939-2.2227-0.001-1.228 0.868-2.2241 1.939-2.2246zm7.4004 0c1.0725-0.00073058 1.9421 0.9957 1.9414 2.2246-0.0002651 1.2281-0.86957 2.2234-1.9414 2.2227h-0.003906c-0.06328-0.00036321-0.12651-0.0042731-0.18945-0.011719h-0.003906c-0.062935-0.0075591-0.12551-0.018652-0.1875-0.033203h-0.003906c-0.028157-0.007748-0.056158-0.016206-0.083984-0.025391-0.034749-0.0093354-0.069268-0.01976-0.10352-0.03125-0.059-0.0214-0.119-0.0462-0.178-0.0743l-0.003906-0.0019531c-0.058-0.0287-0.115-0.0606-0.17-0.0957l-0.003906-0.0019531c-0.055618-0.034696-0.10972-0.072511-0.16211-0.11328l-0.003906-0.0019531c-0.045026-0.036283-0.088686-0.074714-0.13086-0.11523-0.007202-0.006463-0.014363-0.012955-0.021484-0.019531-0.049016-0.047437-0.095949-0.097628-0.14062-0.15039l-0.001953-0.0019531c-0.013245-0.016706-0.026267-0.033637-0.039062-0.050781-0.030473-0.037882-0.059788-0.07697-0.087891-0.11719-0.039-0.0569-0.077-0.1163-0.111-0.1776l-0.001953-0.0019531c-0.033932-0.061357-0.06522-0.12459-0.09375-0.18945l-0.001953-0.0039063c-0.005339-0.014249-0.010548-0.028573-0.015625-0.042969-0.022664-0.052422-0.043514-0.10585-0.0625-0.16016-0.02313-0.067831-0.043336-0.13692-0.060547-0.20703-0.010332-0.044587-0.019452-0.089528-0.027344-0.13477-0.005701-0.028535-0.010911-0.057175-0.015625-0.085938-0.010908-0.071781-0.01873-0.14414-0.023438-0.2168v-0.0039063c-0.002262-0.040316-0.003565-0.080698-0.003906-0.12109-0.00006392-0.010432-0.00006392-0.020818 0-0.03125-0.00067625-1.228 0.86772-2.2241 1.9395-2.2246zm-24.252 0.57031c0.099588 1.7599 0.27789 4.6679 0.18359 5.0566l-0.22 1.504c-0.17195 0.82444-0.09765 1.7634-0.12109 2.6055 0.0512 0.62313 0.35992 0.70942 0.60547 0.74219l-1.5684 1.2324c0.52144-1.8933 0.92289-3.7364 0.050781-5.0566l-0.108-4.7477c0.28541-0.45728 0.7437-1.0123 1.1777-1.3359zm0.97461 10.807-2.627 2.0625-0.005859 0.6582 2.6426-2.0742zm0.019531 1.293-2.6582 2.084-0.005859 0.6582 2.6738-2.0996zm0.017 1.289-2.689 2.111-0.0059 0.655 2.7049-2.123zm0.019531 1.2891-2.7207 2.1348-0.0058594 0.65625l2.7366-2.146zm0.017578 1.291-2.752 2.1582-0.0058594 0.6582 2.7676-2.1699zm0.017578 1.291-2.7832 2.1855-0.0058594 0.65625 2.7988-2.1953zm0.017578 1.293-2.8125 2.209-0.15039 15.213c0.0089061 2.4962 3.2161 2.1751 3.207-0.11133zm-0.49219 1.043 0.21875 16.441c0.027522 1.1553-2.1037 1.8608-2.1719-0.007813l0.14062-15.014zm20.141 4.6562c0.35376 0.00010507 0.64052 0.28686 0.64062 0.64062-0.00010516 0.35376-0.28686 0.64052-0.64062 0.64062-0.35453 0.00097512-0.64247-0.2861-0.64258-0.64062 0.00010407-0.35453 0.28805-0.6416 0.64258-0.64062zm-0.023438 0.33203c-0.16182 0.011679-0.28713 0.14636-0.28711 0.30859 0.0004214 0.17102 0.13953 0.30925 0.31055 0.30859 0.17026-0.00042066 0.30817-0.13834 0.30859-0.30859-0.00042027-0.17026-0.13834-0.30817-0.30859-0.30859-0.00781-0.00029594-0.015628-0.00029594-0.023438 0z" transform="matrix(.26458 0 0 .26458 0 284.3)"/>
 </g>
</svg>

<svg width="48" height="48" viewBox="0 0 48 48" fill="none" xmlns="http://www.w3.org/2000/svg">
<path d="M12.1839 4.66401C10.9269 5.34757 10.4533 6.12479 9.99438 6.85148L10.0939 11.7008C10.5575 12.8515 10.9766 14.051 10.0431 16.7516L10.0333 17.8199L12.6446 15.7712L12.6348 15.113C12.3744 15.1048 12.0323 15.0886 12.0333 14.7126L12.0665 12.8396C12.193 11.7792 12.461 10.769 12.418 9.57986C12.34 7.94078 12.17 5.9997 12.184 4.66382L12.1839 4.66401ZM28.5296 4.66401C27.2761 4.66463 26.2602 5.82919 26.2602 7.26558C26.2602 8.70196 27.2762 9.86644 28.5296 9.86714C28.5727 9.86594 28.6157 9.86334 28.6586 9.85933H30.2805L30.6243 10.2285L30.6204 11.037L31.5559 29.3068L32.261 28.7795L31.468 11.0367H32.9758L32.5266 28.8725L31.5715 29.5776C31.6538 34.0296 31.8057 38.9176 31.9465 43.3354H32.3895L32.2625 32.1385L33.1485 31.7185L33.8245 11.0368L33.8345 10.2288L34.1685 9.867H35.9282C37.1825 9.86762 38.1997 8.70271 38.1997 7.26543C38.1997 5.82815 37.1825 4.66327 35.9282 4.66387C34.6747 4.66448 33.6588 5.82905 33.6588 7.26543C33.6594 7.27586 33.66 7.28625 33.6607 7.29668H33.6588V9.29866L33.0982 9.92756H31.3599L30.7994 9.29866V7.29478C30.7994 7.28503 30.7994 7.27524 30.7994 7.26549C30.7994 5.8282 29.7822 4.66332 28.5279 4.66392L28.5296 4.66401ZM32.3909 43.3355H32.8733L33.1428 31.9277L32.5159 32.2089L32.3909 43.3355ZM28.5289 5.041C29.6014 5.04027 30.471 6.03669 30.4703 7.26558C30.4697 7.27533 30.4691 7.28512 30.4684 7.29487C30.4676 7.36796 30.4637 7.44097 30.4566 7.51362V7.51753C30.4554 7.52535 30.4541 7.53318 30.4527 7.54096C30.4465 7.60188 30.438 7.66248 30.4274 7.7226V7.72651C30.4267 7.72976 30.4261 7.73302 30.4254 7.73627C30.4222 7.74931 30.419 7.76235 30.4156 7.77533C30.406 7.82458 30.3949 7.87344 30.3824 7.92181C30.3811 7.92571 30.3798 7.92964 30.3785 7.93353C30.3699 7.96241 30.3608 7.99104 30.3512 8.01947C30.3369 8.06628 30.3213 8.11253 30.3043 8.15814C30.2796 8.22274 30.2522 8.28596 30.2223 8.34758C30.221 8.35084 30.2197 8.3541 30.2184 8.35735C30.2076 8.3784 30.1965 8.39923 30.1852 8.41985C30.1832 8.42311 30.1813 8.42636 30.1793 8.42961C30.1606 8.46541 30.1411 8.50056 30.1207 8.53508C30.1188 8.53834 30.1168 8.5416 30.1149 8.54485C30.1015 8.56529 30.0878 8.58548 30.0738 8.6054C30.0513 8.6407 30.0279 8.6752 30.0035 8.70891C30.0009 8.71284 29.9983 8.71674 29.9957 8.72063C29.9804 8.73983 29.9648 8.75871 29.9488 8.77727C29.9267 8.80528 29.9039 8.83263 29.8805 8.8593C29.874 8.86652 29.8675 8.87368 29.861 8.88079C29.8209 8.92448 29.7792 8.96618 29.736 9.00578C29.7288 9.01236 29.7217 9.01885 29.7145 9.02532C29.7112 9.02793 29.708 9.03052 29.7047 9.03313C29.6912 9.04439 29.6775 9.05552 29.6637 9.06633C29.6287 9.0957 29.5929 9.1237 29.5563 9.15031L29.5543 9.15227C29.5517 9.15357 29.5491 9.1549 29.5465 9.15617C29.5426 9.1588 29.5387 9.16138 29.5348 9.16398C29.4871 9.19698 29.4383 9.2276 29.3883 9.25578L29.3844 9.25969C29.3812 9.261 29.3779 9.26232 29.3746 9.26359C29.3694 9.26623 29.3642 9.26884 29.359 9.27141C29.3092 9.29926 29.2584 9.32469 29.2067 9.34758L29.2028 9.34953C29.1521 9.37153 29.1006 9.39107 29.0485 9.40812C29.0439 9.40944 29.0394 9.41076 29.0348 9.41203C29.0205 9.41547 29.0062 9.41873 28.9918 9.42179C28.962 9.42977 28.9321 9.43693 28.902 9.44328C28.8877 9.44736 28.8734 9.45129 28.859 9.455H28.8532C28.811 9.46312 28.7687 9.46962 28.7262 9.47453C28.721 9.4752 28.7158 9.47585 28.7106 9.47648C28.6911 9.47877 28.6715 9.48072 28.652 9.48234C28.6481 9.48301 28.6442 9.48366 28.6403 9.48429C28.6045 9.48673 28.5687 9.48805 28.5329 9.4882H28.529C27.458 9.4877 26.59 8.49281 26.59 7.26553C26.589 6.03754 27.458 5.04146 28.529 5.04096L28.5289 5.041ZM35.9293 5.041C37.0017 5.04027 37.8713 6.03669 37.8706 7.26558C37.8704 8.49366 37.0011 9.48895 35.9293 9.48825H35.9253C35.8621 9.48788 35.7988 9.48397 35.7359 9.47653H35.732C35.6691 9.46897 35.6065 9.45788 35.5445 9.44333H35.5406C35.5124 9.43558 35.4844 9.42712 35.4566 9.41794C35.4219 9.4086 35.3873 9.39818 35.3531 9.38669C35.2941 9.36529 35.2341 9.34049 35.1751 9.31239L35.1712 9.31043C35.1132 9.28173 35.0562 9.24983 35.0012 9.21474L34.9973 9.21278C34.9417 9.17809 34.8876 9.14027 34.8352 9.0995L34.8313 9.09755C34.7862 9.06127 34.7426 9.02284 34.7004 8.98232C34.6932 8.97586 34.686 8.96937 34.6789 8.96279C34.6299 8.91535 34.583 8.86516 34.5383 8.8124L34.5364 8.81045C34.5231 8.79374 34.5101 8.77681 34.4973 8.75967C34.4668 8.72179 34.4375 8.6827 34.4094 8.64248C34.3704 8.58558 34.3324 8.52618 34.2984 8.46488L34.2965 8.46293C34.2625 8.40157 34.2312 8.33834 34.2027 8.27348L34.2007 8.26958C34.1954 8.25533 34.1902 8.241 34.1851 8.22661C34.1625 8.17419 34.1416 8.12076 34.1226 8.06645C34.0995 7.99862 34.0793 7.92953 34.0621 7.85942C34.0517 7.81484 34.0426 7.7699 34.0347 7.72465C34.029 7.69612 34.0238 7.66748 34.0191 7.63872C34.0082 7.56694 34.0004 7.49458 33.9957 7.42192V7.41801C33.9934 7.3777 33.9921 7.33732 33.9918 7.29693C33.9917 7.28649 33.9917 7.27611 33.9918 7.26568C33.9911 6.03769 34.8595 5.0416 35.9312 5.0411L35.9293 5.041ZM11.6776 5.61131C11.7771 7.37118 11.9554 10.2791 11.8611 10.6678L11.6411 12.1718C11.4692 12.9963 11.5435 13.9352 11.5201 14.7773C11.5713 15.4004 11.88 15.4867 12.1255 15.5195L10.5571 16.7519C11.0786 14.8586 11.48 13.0155 10.6079 11.6953L10.4999 6.94768C10.7853 6.49041 11.2436 5.93539 11.6776 5.6118V5.61131ZM12.6522 16.4182L10.0252 18.4806L10.0193 19.1388L12.6619 17.0647L12.6522 16.4182ZM12.6717 17.7112L10.0135 19.7951L10.0077 20.4533L12.6814 18.3537L12.6717 17.7112ZM12.6887 19.0001L9.99971 21.1111L9.99382 21.7661L12.6987 19.6431L12.6887 19.0001ZM12.7082 20.2892L9.98755 22.424L9.98169 23.0802L12.7183 20.9343L12.7082 20.2892ZM12.7258 21.5802L9.97383 23.7384L9.96797 24.3966L12.7355 22.2267L12.7258 21.5802ZM12.7434 22.8712L9.96021 25.0567L9.95435 25.7129L12.7531 23.5176L12.7434 22.8712ZM12.7609 24.1642L9.94847 26.3731L9.7981 41.586C9.807 44.0821 13.0142 43.761 13.0051 41.4746L12.7609 24.1642ZM12.2688 25.2072L12.4875 41.648C12.515 42.8032 10.3838 43.5087 10.3156 41.6401L10.4563 26.6263L12.2688 25.2072ZM32.4095 29.8633C32.7633 29.8634 33.05 30.1502 33.0501 30.5039C33.05 30.8577 32.7633 31.1444 32.4095 31.1445C32.055 31.1455 31.767 30.8584 31.7669 30.5039C31.767 30.1494 32.055 29.8623 32.4095 29.8633ZM32.3861 30.1953C32.2243 30.207 32.0989 30.3417 32.099 30.5039C32.0994 30.6749 32.2385 30.8132 32.4095 30.8125C32.5798 30.8121 32.7177 30.6742 32.7181 30.5039C32.7177 30.3337 32.5798 30.1957 32.4095 30.1953C32.4017 30.195 32.3939 30.195 32.3861 30.1953Z" fill="#333333"/>
</svg>
